assets/images/mobile_background_img.svg

<?xml version="1.0" encoding="UTF-8"?>
<svg width="375px" height="812px" viewBox="0 0 375 812" version="1.1" xmlns="http://www.w3.org/2000/svg" xmlns:xlink="http://www.w3.org/1999/xlink">
    <!-- Generator: Sketch 61.1 (89650) - https://sketch.com -->
    <title>F_1 Copy</title>
    <desc>Created with Sketch.</desc>
    <defs>
        <polygon id="path-1" points="0 0 1033 0 1033 1056 0 1056"></polygon>
        <polygon id="path-3" points="0.0003 0 350.7133 0 350.7133 188.516 0.0003 188.516"></polygon>
        <polygon id="path-5" points="0 0 24 0 24 26 0 26"></polygon>
    </defs>
    <g id="F_1-Copy" stroke="none" stroke-width="1" fill="none" fill-rule="evenodd">
        <rect id="Rectangle" fill="#E8F4FF" x="0" y="0" width="375" height="812"></rect>
        <g id="Group-4" transform="translate(-469.000000, -121.000000)">
            <g id="Group-3">
                <mask id="mask-2" fill="white">
                    <use xlink:href="#path-1"></use>
                </mask>
                <g id="Clip-2"></g>
                <path d="M1033,269.806097 C918.780603,155.591233 808.910691,10.4119887 682.079318,0.488220027 C564.602478,-8.70009149 446.743509,112.496712 385.412552,305.555852 C338.368148,453.644238 321.965446,639.91756 257.134181,760.581566 C209.109827,849.964127 142.201476,888.30596 83.1632968,948.485969 C53.5966533,978.623369 25.6893015,1014.75556 0,1056 L1033,1056 L1033,269.806097 Z" id="Fill-1" fill="#B7DED0" opacity="0.517206101" mask="url(#mask-2)"></path>
            </g>
            <g id="Group-3" opacity="0.645438058" transform="translate(444.000000, 82.000000)">
                <mask id="mask-4" fill="white">
                    <use xlink:href="#path-3"></use>
                </mask>
                <g id="Clip-2"></g>
                <path d="M112.0843,184.3804 C158.0633,174.4454 198.7243,147.5004 233.8163,116.1754 C268.9083,84.8504 299.4793,48.8244 333.3303,16.1624 C339.0123,10.6804 344.8103,5.2874 350.7133,-0.0006 L0.0003,-0.0006 L0.0003,173.9064 C35.1443,188.6164 74.8273,192.4314 112.0843,184.3804" id="Fill-1" fill="#9FD8C4" opacity="0.377371652" mask="url(#mask-4)"></path>
            </g>
            <g id="Group-3-Copy-3" transform="translate(527.000000, 755.000000)">
                <path d="M0,10.4016721 C0.478218636,12.9305426 0.685379452,15.5425185 1.48711871,17.9714028 C3.56545287,24.2640376 11.3548341,27.8304267 17.5225765,25.0373071 C19.6136901,24.0900357 21.6557038,21.9000794 22.5206675,19.814654 C24.2801892,15.573683 24.406638,10.9788649 23.236314,6.46065962 C22.2724781,2.73650018 19.6715337,0.514730019 15.6984852,0.173868145 C13.704226,0.00246331665 11.6588493,-0.0942765295 9.68140513,0.134912502 C2.81819421,0.930256875 0.324865825,3.73116759 0,10.4016721" id="Fill-1" fill="#B7DED0" opacity="0.0978422619"></path>
                <mask id="mask-6" fill="white">
                    <use xlink:href="#path-5"></use>
                </mask>
                <g id="Clip-2"></g>
            </g>
            <polygon id="Fill-1" fill="#7F7F87" points="421 949.76 861 949.76 861 877 421 877"></polygon>
        </g>
    </g>
</svg>

<?xml version="1.0" encoding="utf-8"?>
<!-- Generator: Adobe Illustrator 22.1.0, SVG Export Plug-In . SVG Version: 6.00 Build 0)  -->
<svg version="1.1" id="Layer_1" xmlns="http://www.w3.org/2000/svg" xmlns:xlink="http://www.w3.org/1999/xlink" x="0px" y="0px"
	 viewBox="0 0 375 812" style="enable-background:new 0 0 375 812;" xml:space="preserve">
<style type="text/css">
	.st0{fill:#E8F4FF;}
	.st1{filter:url(#Adobe_OpacityMaskFilter);}
	.st2{fill:#FFFFFF;}
	.st3{opacity:0.5172;mask:url(#mask-2_1_);fill:#B7DED0;enable-background:new    ;}
	.st4{opacity:0.6454;}
	.st5{filter:url(#Adobe_OpacityMaskFilter_1_);}
	.st6{opacity:0.3774;mask:url(#mask-4_1_);fill:#9FD8C4;enable-background:new    ;}
	.st7{opacity:9.784226e-02;fill:#B7DED0;enable-background:new    ;}
</style>
<title>F_1 Copy</title>
<desc>Created with Sketch.</desc>
<g id="F_1-Copy">
	<rect id="Rectangle" class="st0" width="375" height="812"/>
	<g id="Group-4" transform="translate(-469.000000, -121.000000)">
		<g id="Group-3">
			<g id="Clip-2">
			</g>
			<defs>
				<filter id="Adobe_OpacityMaskFilter" filterUnits="userSpaceOnUse" x="0" y="0" width="1033" height="1056">
					<feColorMatrix  type="matrix" values="1 0 0 0 0  0 1 0 0 0  0 0 1 0 0  0 0 0 1 0"/>
				</filter>
			</defs>
			<mask maskUnits="userSpaceOnUse" x="0" y="0" width="1033" height="1056" id="mask-2_1_">
				<g class="st1">
					<polygon id="path-1_1_" class="st2" points="0,0 1033,0 1033,1056 0,1056 					"/>
				</g>
			</mask>
			<path id="Fill-1" class="st3" d="M1033,269.8C918.8,155.6,808.9,10.4,682.1,0.5c-117.5-9.2-235.3,112-296.7,305.1
				c-47,148.1-63.4,334.4-128.3,455c-48,89.4-114.9,127.7-174,187.9C53.6,978.6,25.7,1014.8,0,1056h1033V269.8z"/>
		</g>
		<g id="Group-3_1_" transform="translate(444.000000, 82.000000)" class="st4">
			<g id="Clip-2_1_">
			</g>
			<defs>
				<filter id="Adobe_OpacityMaskFilter_1_" filterUnits="userSpaceOnUse" x="0" y="0" width="350.7" height="188.5">
					<feColorMatrix  type="matrix" values="1 0 0 0 0  0 1 0 0 0  0 0 1 0 0  0 0 0 1 0"/>
				</filter>
			</defs>
			<mask maskUnits="userSpaceOnUse" x="0" y="0" width="350.7" height="188.5" id="mask-4_1_">
				<g class="st5">
					<polygon id="path-3_1_" class="st2" points="0,0 350.7,0 350.7,188.5 0,188.5 					"/>
				</g>
			</mask>
			<path id="Fill-1_1_" class="st6" d="M112.1,184.4c46-9.9,86.6-36.9,121.7-68.2s65.7-67.4,99.5-100C339,10.7,344.8,5.3,350.7,0H0
				v173.9C35.1,188.6,74.8,192.4,112.1,184.4"/>
		</g>
		<g id="Group-3-Copy-3" transform="translate(527.000000, 755.000000)">
			<path id="Fill-1_2_" class="st7" d="M0,10.4c0.5,2.5,0.7,5.1,1.5,7.6c2.1,6.3,9.9,9.9,16,7.1c2.1-0.9,4.1-3.1,5-5.2
				c1.8-4.2,1.9-8.8,0.7-13.4c-1-3.7-3.6-5.9-7.5-6.3c-2-0.2-4-0.3-6,0C2.8,0.9,0.3,3.7,0,10.4"/>
			<g id="Clip-2_2_">
			</g>
		</g>
	</g>
</g>
</svg>
